X:1
T: Paddy "Go Easy"
C:
R:Jig
Q:180
K:D
M:6/8
L:1/16
|:FE|D2E2F2 F2E2F2|A2F2F2 F4E2|D2E2F2 F2D2F2|A2F2E2 E4F2|D2E2F2 F2E2F2|A2F2A2 d4d2|c2B2A2 B2A2F2|A2F2E2 E4:|
|:f2|e2c2A2 A2B2A2|e2c2A2 A4f2|e2c2A2 A2c2e2|f2d2B2 B4f2|e2c2A2 f2d2B2|e2c2A2 a2g2f2|e2c2A2 B2A2F2|A2F2E2 E4:|
|:d2|d2F2F2 F2E2F2|A2F2F2 F4d2|d2F2F2 F2E2F2|A2F2E2 E4d2|d2F2F2 F2E2F2|A2F2A2 d4d2|c2B2A2 B2A2F2|A2F2E2 E4:|
